symbols/web/3k_plus/materialsymbolsrounded/3k_plus_wght500grad200_20px.svg

<svg xmlns="http://www.w3.org/2000/svg" height="20" width="20"><path d="M9.938 12.521q.25 0 .437-.188.187-.187.187-.458v-1.292l1.271 1.688q.084.125.198.187.115.063.261.063.375 0 .552-.344.177-.344-.052-.656L11.646 10l1.187-1.583q.229-.292.052-.625-.177-.334-.552-.334-.145 0-.271.073-.124.073-.187.157l-1.313 1.729V8.083q0-.271-.177-.448t-.447-.177q-.271 0-.459.188-.187.187-.187.437v3.813q0 .271.177.448t.469.177Zm-4.396 0h2.354q.354 0 .614-.24.261-.239.261-.593V8.312q0-.354-.25-.604t-.625-.25H5.521q-.271 0-.448.177t-.177.469q0 .271.177.458.177.188.469.188h1.896v.833H6.104q-.166 0-.281.125-.115.125-.115.292 0 .167.125.292.125.125.292.125h1.313v.812H5.521q-.25 0-.438.188-.187.187-.187.458t.187.458q.188.188.459.188Zm-1.23 5.604q-1.02 0-1.729-.708-.708-.709-.708-1.729V4.312q0-1.02.708-1.729.709-.708 1.729-.708h11.376q1.02 0 1.729.708.708.709.708 1.729v11.376q0 1.02-.708 1.729-.709.708-1.729.708Zm0-2.437h11.376V4.312H4.312v11.376Zm0-11.376v11.376V4.312Zm9.771 7.292q.167 0 .302-.114.136-.115.136-.282v-.791h.771q.166 0 .281-.125.115-.125.115-.292 0-.167-.115-.292-.115-.125-.281-.125h-.771v-.771q0-.166-.125-.291-.125-.125-.313-.125-.166 0-.291.125-.125.125-.125.271v.791h-.792q-.167 0-.292.125-.125.125-.125.292 0 .167.125.292.125.125.271.125h.813v.771q0 .166.125.291.125.125.291.125Z"/></svg>

<svg xmlns="http://www.w3.org/2000/svg" height="20" width="20"><path d="M9.938 12.521Q10.188 12.521 10.375 12.333Q10.562 12.146 10.562 11.875V10.583L11.833 12.271Q11.917 12.396 12.031 12.458Q12.146 12.521 12.292 12.521Q12.667 12.521 12.844 12.177Q13.021 11.833 12.792 11.521L11.646 10L12.833 8.417Q13.062 8.125 12.885 7.792Q12.708 7.458 12.333 7.458Q12.188 7.458 12.062 7.531Q11.938 7.604 11.875 7.688L10.562 9.417V8.083Q10.562 7.812 10.385 7.635Q10.208 7.458 9.938 7.458Q9.667 7.458 9.479 7.646Q9.292 7.833 9.292 8.083V11.896Q9.292 12.167 9.469 12.344Q9.646 12.521 9.938 12.521ZM5.542 12.521H7.896Q8.25 12.521 8.51 12.281Q8.771 12.042 8.771 11.688V8.312Q8.771 7.958 8.521 7.708Q8.271 7.458 7.896 7.458H5.521Q5.25 7.458 5.073 7.635Q4.896 7.812 4.896 8.104Q4.896 8.375 5.073 8.562Q5.25 8.75 5.542 8.75H7.438V9.583H6.104Q5.938 9.583 5.823 9.708Q5.708 9.833 5.708 10Q5.708 10.167 5.833 10.292Q5.958 10.417 6.125 10.417H7.438V11.229H5.521Q5.271 11.229 5.083 11.417Q4.896 11.604 4.896 11.875Q4.896 12.146 5.083 12.333Q5.271 12.521 5.542 12.521ZM4.312 18.125Q3.292 18.125 2.583 17.417Q1.875 16.708 1.875 15.688V4.312Q1.875 3.292 2.583 2.583Q3.292 1.875 4.312 1.875H15.688Q16.708 1.875 17.417 2.583Q18.125 3.292 18.125 4.312V15.688Q18.125 16.708 17.417 17.417Q16.708 18.125 15.688 18.125ZM4.312 15.688H15.688Q15.688 15.688 15.688 15.688Q15.688 15.688 15.688 15.688V4.312Q15.688 4.312 15.688 4.312Q15.688 4.312 15.688 4.312H4.312Q4.312 4.312 4.312 4.312Q4.312 4.312 4.312 4.312V15.688Q4.312 15.688 4.312 15.688Q4.312 15.688 4.312 15.688ZM4.312 4.312Q4.312 4.312 4.312 4.312Q4.312 4.312 4.312 4.312V15.688Q4.312 15.688 4.312 15.688Q4.312 15.688 4.312 15.688Q4.312 15.688 4.312 15.688Q4.312 15.688 4.312 15.688V4.312Q4.312 4.312 4.312 4.312Q4.312 4.312 4.312 4.312ZM14.083 11.604Q14.25 11.604 14.385 11.49Q14.521 11.375 14.521 11.208V10.417H15.292Q15.458 10.417 15.573 10.292Q15.688 10.167 15.688 10Q15.688 9.833 15.573 9.708Q15.458 9.583 15.292 9.583H14.521V8.812Q14.521 8.646 14.396 8.521Q14.271 8.396 14.083 8.396Q13.917 8.396 13.792 8.521Q13.667 8.646 13.667 8.792V9.583H12.875Q12.708 9.583 12.583 9.708Q12.458 9.833 12.458 10Q12.458 10.167 12.583 10.292Q12.708 10.417 12.854 10.417H13.667V11.188Q13.667 11.354 13.792 11.479Q13.917 11.604 14.083 11.604Z"/></svg>
